assets/icons/desk.svg

<svg width="30" height="30" viewBox="0 0 30 30" fill="none" xmlns="http://www.w3.org/2000/svg">
<path d="M13.7814 11.3531L13.783 29.9968H5.26999C3.92415 29.9969 2.62927 29.4822 1.65088 28.5583C0.672483 27.6343 0.0847167 26.3712 0.00810786 25.0278L0 24.7312V11.3515H13.7814V11.3531ZM16.2137 21.0786H29.9984V24.7312C29.9984 26.1285 29.4432 27.4687 28.4548 28.4568C27.4665 29.4449 26.1261 30 24.7284 30L16.2153 29.9968L16.2137 21.077V21.0786ZM24.73 0.00324252C26.0758 0.00313088 27.3707 0.517808 28.3491 1.44173C29.3275 2.36566 29.9153 3.62881 29.9919 4.97217L30 5.27047L29.9984 18.6469H16.2137L16.2153 0.00162107H24.73V0.00324252ZM13.783 0L13.7814 8.92137H0V5.27047C0 3.87308 0.555229 2.53293 1.54354 1.54483C2.53186 0.55673 3.8723 0.00162107 5.26999 0.00162107H13.783V0Z" fill="#B791F5"/>
</svg>

<svg width="30" height="30" viewBox="0 0 30 30" fill="none" xmlns="http://www.w3.org/2000/svg"><path d="M13.781 11.353l.002 18.644H5.27a5.27 5.27 0 01-5.262-4.97L0 24.732v-13.38h13.781v.002zm2.433 9.726h13.784v3.652A5.268 5.268 0 0124.728 30l-8.513-.003-.001-8.92v.002zM24.73.003a5.27 5.27 0 015.262 4.97L30 5.27l-.002 13.377H16.214L16.215.002h8.515v.001zM13.783 0l-.002 8.921H0v-3.65A5.268 5.268 0 015.27 0h8.513V0z" fill="#B791F5"/></svg>
